X: 255
M:C|
L:1/8
K:A
e | fdfa fdfa | edef dBBg | fdfa fdfa | edef d/2d/2d (de) |
fdfa fdfa | edef dBBg | {fg}a>A A/2A/2A (BAGB) | A/2A/2A f>e d2 d|]


